X:348
T: ES GIENG EIN KNABE SPAZIEREN
N: E0197A
O: Europa, Mitteleuropa, Deutschland, Baden, Merzhausen
R: erzaehlendes Volks - Lied, Tod, Toten - Sage, Grabesstimme
M: 6/4
L: 1/8
K: Eb
EG | B3cB2G2F2E2 | c6B2z2
GA | B3cB2A2F2B2 | G8z2
EG | B3cB2G2F2E2 | c6B2z2
GA | B3cB2A2F2B2 | G8z2
GA | B3cB2A2F2B2 | G8z2

